images/ico-bicro-emploi-augmentation.svg

<svg xmlns="http://www.w3.org/2000/svg" width="25" height="25" fill="none" viewBox="0 0 25 25"><g id="marche/augmentation"><g id="Group 32"><circle id="Ellipse 8" cx="17.25" cy="6.25" r="6.25" fill="#cce1f8"/><path id="Path 49" fill="#000638" d="M3.41406 13.0068L6.77744 9.75366L10.1408 13.0068L8.19384 13.0067L8.19411 16.5H7.36078V12.1735L8.0805 12.1733L6.77717 10.913L5.47417 12.1733L6.19411 12.1735V16.5H5.36078L5.3605 13.0067L3.41406 13.0068Z"/><path id="Path 49 Copy" fill="#000638" d="M9.74707 10.0068L13.1104 6.75366L16.4738 10.0068L14.5268 10.0067L14.5271 13.5H13.6938V9.17348L14.4135 9.17334L13.1102 7.91301L11.8072 9.17334L12.5271 9.17348V13.5H11.6938L11.6935 10.0067L9.74707 10.0068Z"/><path id="Path 49 Copy 2" fill="#000638" d="M16.0801 12.0068L19.4435 8.75366L22.8068 12.0068L20.8599 12.0067L20.8601 15.5H20.0268V11.1735L20.7465 11.1733L19.4432 9.91301L18.1402 11.1733L18.8601 11.1735V15.5H18.0268L18.0265 12.0067L16.0801 12.0068Z"/><path id="Path 50" fill="#000638" d="M8.19369 17.8333V19.1666H7.36035V17.8333H8.19369Z"/><path id="Path 50 Copy" fill="#000638" d="M14.5267 14.8333V16.1666H13.6934V14.8333H14.5267Z"/><path id="Path 50 Copy 3" fill="#000638" d="M18.8607 16.1666V17.5H18.0273V16.1666H18.8607Z"/><path id="Path 50 Copy 2" fill="#000638" d="M12.5267 14.1666V15.5H11.6934V14.1666H12.5267Z"/><path id="Path 51" fill="#000638" d="M6.19369 17.1666V17.8333H5.36035V17.1666H6.19369Z"/><path id="Path 52" fill="#000638" d="M6.19369 18.5V19.1667H5.36035V18.5H6.19369Z"/><path id="Path 52 Copy" fill="#000638" d="M12.5267 16.1666V16.8333H11.6934V16.1666H12.5267Z"/><path id="Path 52 Copy 2" fill="#000638" d="M14.5267 16.8333V17.4999H13.6934V16.8333H14.5267Z"/><path id="Path 52 Copy 3" fill="#000638" d="M20.8607 16.8333V17.4999H20.0273V16.8333H20.8607Z"/><path id="Path 52 Copy 4" fill="#000638" d="M20.8607 18.8333V19.4999H20.0273V18.8333H20.8607Z"/><path id="Path 52 Copy 5" fill="#000638" d="M18.8607 18.1666V18.8333H18.0273V18.1666H18.8607Z"/></g></g></svg>

<svg xmlns="http://www.w3.org/2000/svg" width="25" height="25" fill="none" viewBox="0 0 25 25"><circle cx="17.25" cy="6.25" r="6.25" fill="#CCE1F8"/><path fill="#000638" d="m3.414 13.007 3.363-3.253 3.364 3.253H8.194V16.5h-.833v-4.326h.72l-1.304-1.261-1.303 1.26h.72V16.5h-.833v-3.493zm6.333-3 3.363-3.253 3.364 3.253h-1.947V13.5h-.833V9.173h.72l-1.304-1.26-1.303 1.26h.72V13.5h-.833v-3.493zm6.333 2 3.364-3.253 3.363 3.253H20.86V15.5h-.833v-4.326h.72l-1.304-1.261-1.303 1.26h.72V15.5h-.833v-3.493zm-7.886 5.826v1.334H7.36v-1.334zm6.333-3v1.334h-.834v-1.334zm4.333 1.334V17.5h-.833v-1.333zm-6.333-2V15.5h-.834v-1.333zm-6.333 3v.666H5.36v-.666zm0 1.333v.667H5.36V18.5zm6.333-2.333v.666h-.834v-.666zm2 .666v.667h-.834v-.667zm6.333 0v.667h-.833v-.667zm0 2v.667h-.833v-.667zm-2-.666v.666h-.833v-.666z"/></svg>
